;FLAVOR:Marlin
;TIME:16163
;Filament used: 33.5772m
;Layer height: 0.32
;MINX:12
;MINY:22.4
;MINZ:0.32
;MAXX:208
;MAXY:197.6
;MAXZ:47.04
;Generated with Cura_SteamEngine 4.13.1
M140 S60
M105
M190 S60
M104 S200
M105
M109 S200
M82 ;absolute extrusion mode
; Ender 3 Custom Start G-code
G92 E0 ; Reset Extruder
G28 ; Home all axes
G1 Z2.0 F3000 ; Move Z Axis up little to prevent scratching of Heat Bed
G1 X0.1 Y20 Z0.3 F5000.0 ; Move to start position
G1 X0.1 Y200.0 Z0.3 F1500.0 E15 ; Draw the first line
G1 X0.4 Y200.0 Z0.3 F5000.0 ; Move to side a little
G1 X0.4 Y20 Z0.3 F1500.0 E30 ; Draw the second line
G92 E0 ; Reset Extruder
G1 Z2.0 F3000 ; Move Z Axis up little to prevent scratching of Heat Bed
G1 X5 Y20 Z0.3 F5000.0 ; Move over to prevent blob squish
G92 E0
G92 E0
G1 F1500 E-6.5
;LAYER_COUNT:147
;LAYER:0
M107
G0 F6000 X38.581 Y63.841 Z0.32
;TYPE:SKIRT
G1 F1500 E0
G1 F1200 X39.606 Y63.346 E0.12115
G1 X45.245 Y61.129 E0.76604
G1 X45.872 Y60.914 E0.83659
G1 X46.362 Y60.784 E0.89054
G1 X52.241 Y59.44 E1.5324
G1 X52.794 Y59.335 E1.59231
G1 X53.4 Y59.265 E1.65724
G1 X59.438 Y58.813 E2.30167
G1 X60.005 Y58.792 E2.36206
G1 X172.395 Y58.792 E14.324
G1 X172.395 Y30.234 E17.3635
G1 X172.435 Y29.456 E17.44642
G1 X172.554 Y28.685 E17.52945
G1 X172.752 Y27.931 E17.61242
G1 X173.026 Y27.202 E17.69531
G1 X173.373 Y26.504 E17.77827
G1 X173.79 Y25.845 E17.86127
G1 X174.273 Y25.233 E17.94425
G1 X174.621 Y24.86 E17.99854
G1 X174.855 Y24.626 E18.03377
G1 X175.434 Y24.104 E18.11674
G1 X176.063 Y23.644 E18.19968
G1 X176.736 Y23.25 E18.28268
G1 X177.446 Y22.928 E18.36565
G1 X178.185 Y22.68 E18.44862
G1 X178.945 Y22.509 E18.53153
G1 X179.719 Y22.417 E18.61449
G1 X180.229 Y22.4 E18.6688
G1 X200.166 Y22.4 E20.79074
G1 X200.944 Y22.44 E20.87365
G1 X201.715 Y22.559 E20.95668
G1 X202.469 Y22.757 E21.03966
G1 X203.198 Y23.031 E21.12254
G1 X203.896 Y23.378 E21.20551
G1 X204.555 Y23.795 E21.28851
G1 X205.167 Y24.278 E21.37149
G1 X205.54 Y24.626 E21.42578
G1 X205.774 Y24.86 E21.461
G1 X206.296 Y25.439 E21.54397
G1 X206.756 Y26.068 E21.62691
G1 X207.15 Y26.741 E21.70991
G1 X207.472 Y27.451 E21.79289
G1 X207.72 Y28.19 E21.87585
G1 X207.891 Y28.95 E21.95876
G1 X207.983 Y29.724 E22.04172
G1 X208 Y30.234 E22.09603
G1 X208 Y189.766 E39.07541
G1 X207.96 Y190.544 E39.15833
G1 X207.841 Y191.315 E39.24136
G1 X207.643 Y192.069 E39.32433
G1 X207.369 Y192.798 E39.40722
G1 X207.022 Y193.496 E39.49018
G1 X206.605 Y194.155 E39.57318
G1 X206.122 Y194.767 E39.65616
G1 X205.774 Y195.14 E39.71046
G1 X205.54 Y195.374 E39.74568
G1 X204.961 Y195.896 E39.82865
G1 X204.332 Y196.356 E39.91159
G1 X203.659 Y196.75 E39.99459
G1 X202.949 Y197.072 E40.07756
G1 X202.21 Y197.32 E40.16053
G1 X201.45 Y197.491 E40.24344
G1 X200.676 Y197.583 E40.3264
G1 X200.166 Y197.6 E40.38071
G1 X180.229 Y197.6 E42.50265
G1 X179.451 Y197.56 E42.58556
G1 X178.68 Y197.441 E42.6686
G1 X177.926 Y197.243 E42.75157
G1 X177.197 Y196.969 E42.83446
G1 X176.499 Y196.622 E42.91742
G1 X175.84 Y196.205 E43.00042
G1 X175.228 Y195.722 E43.0834
G1 X174.855 Y195.374 E43.13769
G1 X174.621 Y195.14 E43.17291
G1 X174.099 Y194.561 E43.25589
G1 X173.639 Y193.932 E43.33882
G1 X173.245 Y193.259 E43.42183
G1 X172.923 Y192.549 E43.5048
G1 X172.675 Y191.81 E43.58776
G1 X172.504 Y191.05 E43.67068
G1 X172.412 Y190.276 E43.75363
G1 X172.395 Y189.766 E43.80795
G1 X172.395 Y161.208 E46.84744
G1 X59.99 Y161.207 E58.81098
G1 X59.423 Y161.186 E58.87137
G1 X53.4 Y160.735 E59.51421
G1 X52.992 Y160.693 E59.55786
G1 X52.24 Y160.561 E59.63912
G1 X46.361 Y159.216 E60.281
G1 X45.774 Y159.056 E60.34576
G1 X45.246 Y158.871 E60.4053
G1 X39.609 Y156.655 E61.04996
G1 X38.584 Y156.16 E61.17111
G1 X33.344 Y153.128 E61.81545
G1 X32.748 Y152.745 E61.89085
G1 X32.672 Y152.691 E61.90077
G1 X32.33 Y152.433 E61.94637
G1 X27.825 Y148.833 E62.56013
G1 X27.487 Y148.551 E62.60698
G1 X26.833 Y147.924 E62.70341
G1 X22.738 Y143.502 E63.34487
G1 X22.311 Y142.999 E63.41509
G1 X22.012 Y142.589 E63.4691
G1 X18.619 Y137.6 E64.11125
G1 X18.305 Y137.098 E64.17427
G1 X18.035 Y136.587 E64.23579
G1 X15.411 Y131.116 E64.88159
G1 X14.998 Y130.056 E65.00267
G1 X13.221 Y124.259 E65.64799
G1 X13.019 Y123.443 E65.73746
G1 X12.995 Y123.316 E65.75122
G1 X12.945 Y123.022 E65.78296
G1 X12.097 Y117.313 E66.39725
G1 X12.053 Y116.957 E66.43543
G1 X12.038 Y116.808 E66.45137
G1 X12 Y116.033 E66.53395
G1 X12.011 Y109.985 E67.17765
G1 X12.001 Y103.944 E67.82061
G1 X12.045 Y103.118 E67.90865
G1 X12.062 Y102.96 E67.92557
G1 X12.101 Y102.655 E67.95829
G1 X12.947 Y96.969 E68.57013
G1 X13.036 Y96.478 E68.62324
G1 X13.07 Y96.321 E68.64034
G1 X13.232 Y95.701 E68.70854
G1 X14.999 Y89.942 E69.34969
G1 X15.202 Y89.364 E69.41489
G1 X15.424 Y88.855 E69.47399
G1 X18.036 Y83.412 E70.11655
G1 X18.32 Y82.876 E70.18111
G1 X18.618 Y82.4 E70.24089
G1 X22.01 Y77.412 E70.88289
G1 X22.328 Y76.979 E70.94007
G1 X22.737 Y76.498 E71.00727
G1 X26.832 Y72.077 E71.64865
G1 X27.482 Y71.455 E71.7444
G1 X27.697 Y71.272 E71.77445
G1 X27.882 Y71.119 E71.8
G1 X32.378 Y67.53 E72.41229
G1 X32.819 Y67.203 E72.47072
G1 X33.339 Y66.874 E72.53621
G1 X38.581 Y63.841 E73.18079
G0 F6000 X38.982 Y64.533
G1 F1200 X39.899 Y64.091 E73.28913
G1 X45.538 Y61.874 E73.93402
G1 X46.102 Y61.68 E73.9975
G1 X46.541 Y61.564 E74.04583
G1 X52.42 Y60.22 E74.68769
G1 X52.917 Y60.126 E74.74152
G1 X53.459 Y60.063 E74.7996
G1 X59.497 Y59.611 E75.44404
G1 X60.005 Y59.592 E75.49814
G1 X173.195 Y59.592 E87.54523
G1 X173.195 Y30.234 E90.66987
G1 X173.235 Y29.498 E90.74832
G1 X173.354 Y28.77 E90.82683
G1 X173.552 Y28.06 E90.90528
G1 X173.825 Y27.375 E90.98377
G1 X174.171 Y26.724 E91.06223
G1 X174.585 Y26.114 E91.1407
G1 X175.187 Y25.426 E91.238
G1 X175.421 Y25.192 E91.27322
G1 X175.97 Y24.699 E91.35175
G1 X176.568 Y24.269 E91.43014
G1 X177.21 Y23.907 E91.50859
G1 X177.888 Y23.616 E91.58711
G1 X178.593 Y23.4 E91.66559
G1 X179.317 Y23.261 E91.74406
G1 X180.229 Y23.2 E91.84134
G1 X200.166 Y23.2 E93.96328
G1 X200.902 Y23.24 E94.04173
G1 X201.63 Y23.359 E94.12024
G1 X202.34 Y23.557 E94.19869
G1 X203.025 Y23.83 E94.27718
G1 X203.676 Y24.176 E94.35564
G1 X204.286 Y24.59 E94.43411
G1 X204.974 Y25.192 E94.53141
G1 X205.208 Y25.426 E94.56663
G1 X205.701 Y25.975 E94.64516
G1 X206.131 Y26.573 E94.72355
G1 X206.493 Y27.215 E94.802
G1 X206.784 Y27.893 E94.88052
G1 X207 Y28.598 E94.959
G1 X207.139 Y29.322 E95.03747
G1 X207.2 Y30.234 E95.13475
G1 X207.2 Y189.766 E112.11413
G1 X207.16 Y190.502 E112.19258
G1 X207.041 Y191.23 E112.27109
G1 X206.843 Y191.94 E112.34954
G1 X206.57 Y192.625 E112.42802
G1 X206.224 Y193.276 E112.50649
G1 X205.81 Y193.886 E112.58495
G1 X205.208 Y194.574 E112.68225
G1 X204.974 Y194.808 E112.71747
G1 X204.425 Y195.301 E112.79601
G1 X203.827 Y195.731 E112.8744
G1 X203.185 Y196.093 E112.95284
G1 X202.507 Y196.384 E113.03137
G1 X201.802 Y196.6 E113.10985
G1 X201.078 Y196.739 E113.18831
G1 X200.166 Y196.8 E113.2856
G1 X180.229 Y196.8 E115.40754
G1 X179.493 Y196.76 E115.48599
G1 X178.765 Y196.641 E115.5645
G1 X178.055 Y196.443 E115.64295
G1 X177.37 Y196.17 E115.72143
G1 X176.719 Y195.824 E115.7999
G1 X176.109 Y195.41 E115.87836
G1 X175.421 Y194.808 E115.97566
G1 X175.187 Y194.574 E116.01088
G1 X174.694 Y194.025 E116.08942
G1 X174.264 Y193.427 E116.16781
G1 X173.902 Y192.785 E116.24625
G1 X173.611 Y192.107 E116.32478
G1 X173.395 Y191.402 E116.40326
G1 X173.256 Y190.678 E116.48172
G1 X173.195 Y189.766 E116.57901
G1 X173.195 Y160.408 E119.70365
G1 X59.99 Y160.407 E131.75233
G1 X59.482 Y160.388 E131.80644
G1 X53.459 Y159.937 E132.44928
G1 X53.092 Y159.899 E132.48855
G1 X52.418 Y159.781 E132.56137
G1 X46.539 Y158.436 E133.20325
G1 X46.011 Y158.292 E133.2615
G1 X45.539 Y158.127 E133.31472
G1 X39.902 Y155.911 E133.95937
G1 X38.984 Y155.468 E134.06786
G1 X33.744 Y152.436 E134.7122
G1 X33.211 Y152.093 E134.77966
G1 X33.135 Y152.039 E134.78958
G1 X32.829 Y151.808 E134.83039
G1 X28.324 Y148.208 E135.44415
G1 X28.005 Y147.941 E135.48843
G1 X27.42 Y147.38 E135.5747
G1 X23.325 Y142.958 E136.21615
G1 X22.941 Y142.506 E136.27927
G1 X22.673 Y142.139 E136.32764
G1 X19.28 Y137.15 E136.9698
G1 X18.998 Y136.698 E137.0265
G1 X18.757 Y136.241 E137.08149
G1 X16.133 Y130.77 E137.72729
G1 X15.763 Y129.822 E137.8356
G1 X13.986 Y124.025 E138.48093
G1 X13.805 Y123.295 E138.56097
G1 X13.781 Y123.168 E138.57473
G1 X13.737 Y122.904 E138.60322
G1 X12.889 Y117.195 E139.21751
G1 X12.849 Y116.877 E139.25162
G1 X12.834 Y116.728 E139.26756
G1 X12.8 Y116.035 E139.3414
G1 X12.811 Y109.987 E139.98511
G1 X12.801 Y103.942 E140.62849
G1 X12.84 Y103.204 E140.70715
G1 X12.857 Y103.046 E140.72406
G1 X12.892 Y102.772 E140.75346
G1 X13.738 Y97.086 E141.3653
G1 X13.818 Y96.648 E141.41269
G1 X13.852 Y96.491 E141.42978
G1 X13.997 Y95.935 E141.49094
G1 X15.764 Y90.176 E142.13209
G1 X15.947 Y89.657 E142.19066
G1 X16.145 Y89.201 E142.24357
G1 X18.757 Y83.758 E142.88613
G1 X19.013 Y83.276 E142.94422
G1 X19.28 Y82.85 E142.99773
G1 X22.672 Y77.862 E143.63974
G1 X22.958 Y77.472 E143.69121
G1 X23.324 Y77.042 E143.75131
G1 X27.419 Y72.621 E144.39269
G1 X28 Y72.064 E144.47835
G1 X28.215 Y71.881 E144.5084
G1 X28.381 Y71.745 E144.53124
G1 X32.877 Y68.156 E145.14353
G1 X33.274 Y67.861 E145.19617
G1 X33.74 Y67.566 E145.25487
G1 X38.982 Y64.533 E145.89945
G0 F6000 X39.382 Y65.226
G1 F1200 X40.192 Y64.835 E145.99517
G1 X45.831 Y62.618 E146.64007
G1 X46.332 Y62.446 E146.69644
G1 X46.719 Y62.344 E146.73904
G1 X52.598 Y61 E147.3809
G1 X53.041 Y60.916 E147.42889
G1 X53.519 Y60.861 E147.4801
G1 X59.557 Y60.409 E148.12453
G1 X60.005 Y60.392 E148.17225
G1 X173.995 Y60.392 E160.30448
G1 X173.995 Y30.234 E163.51427
G1 X174.035 Y29.543 E163.58794
G1 X174.154 Y28.86 E163.66173
G1 X174.352 Y28.197 E163.73537
G1 X174.624 Y27.56 E163.80909
G1 X174.968 Y26.959 E163.8828
G1 X175.379 Y26.401 E163.95656
G1 X175.752 Y25.991 E164.01555
G1 X175.986 Y25.757 E164.05077
G1 X176.503 Y25.297 E164.12442
G1 X177.07 Y24.899 E164.19816
G1 X177.679 Y24.569 E164.27188
G1 X178.322 Y24.311 E164.34562
G1 X178.99 Y24.129 E164.4193
G1 X179.675 Y24.026 E164.49303
G1 X180.229 Y24 E164.55206
G1 X200.166 Y24 E166.674
G1 X200.857 Y24.04 E166.74767
G1 X201.54 Y24.159 E166.82146
G1 X202.203 Y24.357 E166.8951
G1 X202.84 Y24.629 E166.96882
G1 X203.441 Y24.973 E167.04253
G1 X203.999 Y25.384 E167.11629
G1 X204.409 Y25.757 E167.17528
G1 X204.643 Y25.991 E167.2105
G1 X205.103 Y26.508 E167.28415
G1 X205.501 Y27.075 E167.35788
G1 X205.831 Y27.684 E167.43161
G1 X206.089 Y28.327 E167.50535
G1 X206.271 Y28.995 E167.57903
G1 X206.374 Y29.68 E167.65276
G1 X206.4 Y30.234 E167.71179
G1 X206.4 Y189.766 E184.69117
G1 X206.36 Y190.457 E184.76484
G1 X206.241 Y191.14 E184.83862
G1 X206.043 Y191.803 E184.91227
G1 X205.771 Y192.44 E184.98599
G1 X205.427 Y193.041 E185.05969
G1 X205.016 Y193.599 E185.13345
G1 X204.643 Y194.009 E185.19244
G1 X204.409 Y194.243 E185.22767
G1 X203.892 Y194.703 E185.30132
G1 X203.325 Y195.101 E185.37505
G1 X202.716 Y195.431 E185.44877
G1 X202.073 Y195.689 E185.52251
G1 X201.405 Y195.871 E185.5962
G1 X200.72 Y195.974 E185.66992
G1 X200.166 Y196 E185.72895
G1 X180.229 Y196 E187.8509
G1 X179.538 Y195.96 E187.92456
G1 X178.855 Y195.841 E187.99835
G1 X178.192 Y195.643 E188.072
G1 X177.555 Y195.371 E188.14572
G1 X176.954 Y195.027 E188.21942
G1 X176.396 Y194.616 E188.29318
G1 X175.986 Y194.243 E188.35217
G1 X175.752 Y194.009 E188.3874
G1 X175.292 Y193.492 E188.46105
G1 X174.894 Y192.925 E188.53478
G1 X174.564 Y192.316 E188.6085
G1 X174.306 Y191.673 E188.68224
G1 X174.124 Y191.005 E188.75593
G1 X174.021 Y190.32 E188.82965
G1 X173.995 Y189.766 E188.88868
G1 X173.995 Y159.608 E192.09847
G1 X59.99 Y159.607 E204.2323
G1 X59.542 Y159.59 E204.28002
G1 X53.519 Y159.139 E204.92285
G1 X53.191 Y159.106 E204.95794
G1 X52.597 Y159.001 E205.02214
G1 X46.718 Y157.656 E205.66402
G1 X46.249 Y157.528 E205.71577
G1 X45.832 Y157.382 E205.76279
G1 X40.195 Y155.166 E206.40744
G1 X39.385 Y154.775 E206.50317
G1 X34.145 Y151.743 E207.14751
G1 X33.675 Y151.441 E207.20697
G1 X33.599 Y151.387 E207.2169
G1 X33.328 Y151.183 E207.253
G1 X28.823 Y147.583 E207.86676
G1 X28.523 Y147.332 E207.90839
G1 X28.007 Y146.837 E207.9845
G1 X23.912 Y142.415 E208.62595
G1 X23.571 Y142.013 E208.68206
G1 X23.335 Y141.689 E208.72472
G1 X19.942 Y136.7 E209.36688
G1 X19.691 Y136.298 E209.41732
G1 X19.478 Y135.895 E209.46583
G1 X16.854 Y130.424 E210.11163
G1 X16.527 Y129.587 E210.20727
G1 X14.75 Y123.79 E210.8526
G1 X14.591 Y123.146 E210.9232
G1 X14.528 Y122.787 E210.96199
G1 X13.68 Y117.078 E211.57628
G1 X13.645 Y116.797 E211.60642
G1 X13.63 Y116.648 E211.62236
G1 X13.6 Y116.036 E211.68758
G1 X13.611 Y109.988 E212.33128
G1 X13.601 Y103.941 E212.97488
G1 X13.635 Y103.289 E213.04437
G1 X13.683 Y102.89 E213.08714
G1 X14.529 Y97.204 E213.69897
G1 X14.6 Y96.817 E213.74085
G1 X14.634 Y96.66 E213.75795
G1 X14.762 Y96.17 E213.81185
G1 X16.529 Y90.411 E214.453
G1 X16.691 Y89.949 E214.50511
G1 X16.867 Y89.547 E214.55181
G1 X19.479 Y84.104 E215.19437
G1 X19.706 Y83.676 E215.24594
G1 X19.942 Y83.3 E215.29319
G1 X23.334 Y78.312 E215.93519
G1 X23.588 Y77.965 E215.98096
G1 X23.911 Y77.586 E216.03396
G1 X28.006 Y73.165 E216.67534
G1 X28.519 Y72.673 E216.75099
G1 X28.734 Y72.49 E216.78104
G1 X28.88 Y72.37 E216.80115
G1 X33.376 Y68.781 E217.41344
G1 X33.73 Y68.519 E217.46031
G1 X34.14 Y68.259 E217.51199
G1 X39.382 Y65.226 E218.15656
G0 F6000 X39.783 Y65.918
G1 F1200 X40.484 Y65.58 E218.23939
G1 X46.123 Y63.363 E218.88428
G1 X46.562 Y63.212 E218.93369
G1 X46.897 Y63.124 E218.97056
G1 X52.776 Y61.78 E219.61242
G1 X53.164 Y61.706 E219.65446
G1 X53.579 Y61.659 E219.69891
G1 X59.617 Y61.207 E220.34335
G1 X60.005 Y61.192 E220.38467
G1 X174.795 Y61.192 E232.60205
G1 X174.795 Y30.234 E235.89699
G1 X174.835 Y29.591 E235.96556
G1 X174.954 Y28.957 E236.03421
G1 X175.151 Y28.343 E236.10284
G1 X175.422 Y27.758 E236.17146
G1 X175.764 Y27.211 E236.24012
G1 X176.318 Y26.557 E236.33135
G1 X176.552 Y26.323 E236.36657
G1 X177.035 Y25.896 E236.43518
G1 X177.568 Y25.533 E236.50382
G1 X178.141 Y25.238 E236.57241
G1 X178.746 Y25.016 E236.641
G1 X179.374 Y24.871 E236.7096
G1 X180.229 Y24.8 E236.80091
G1 X200.166 Y24.8 E238.92286
G1 X200.809 Y24.84 E238.99143
G1 X201.443 Y24.959 E239.06008
G1 X202.057 Y25.156 E239.12871
G1 X202.642 Y25.427 E239.19733
G1 X203.189 Y25.769 E239.26599
G1 X203.843 Y26.323 E239.35722
G1 X204.077 Y26.557 E239.39244
G1 X204.504 Y27.04 E239.46105
G1 X204.867 Y27.573 E239.52969
G1 X205.162 Y28.146 E239.59828
G1 X205.384 Y28.751 E239.66687
G1 X205.529 Y29.379 E239.73547
G1 X205.6 Y30.234 E239.82678
G1 X205.6 Y189.766 E256.80616
G1 X205.56 Y190.409 E256.87473
G1 X205.441 Y191.043 E256.94339
G1 X205.244 Y191.657 E257.01202
G1 X204.973 Y192.242 E257.08064
G1 X204.631 Y192.789 E257.1493
G1 X204.077 Y193.443 E257.24052
G1 X203.843 Y193.677 E257.27574
G1 X203.36 Y194.104 E257.34436
G1 X202.827 Y194.467 E257.41299
G1 X202.254 Y194.762 E257.48159
G1 X201.649 Y194.984 E257.55018
G1 X201.021 Y195.129 E257.61878
G1 X200.166 Y195.2 E257.71009
G1 X180.229 Y195.2 E259.83203
G1 X179.586 Y195.16 E259.9006
G1 X178.952 Y195.041 E259.96926
G1 X178.338 Y194.844 E260.03789
G1 X177.753 Y194.573 E260.10651
G1 X177.206 Y194.231 E260.17517
G1 X176.552 Y193.677 E260.26639
G1 X176.318 Y193.443 E260.30161
G1 X175.891 Y192.96 E260.37023
G1 X175.528 Y192.427 E260.43886
G1 X175.233 Y191.854 E260.50746
G1 X175.011 Y191.249 E260.57605
G1 X174.866 Y190.621 E260.64464
G1 X174.795 Y189.766 E260.73596
G1 X174.795 Y158.808 E264.03089
G1 X59.99 Y158.807 E276.24987
G1 X59.602 Y158.792 E276.29119
G1 X53.579 Y158.341 E276.93403
G1 X53.29 Y158.312 E276.96495
G1 X52.775 Y158.221 E277.02061
G1 X46.896 Y156.876 E277.66249
G1 X46.486 Y156.764 E277.70773
G1 X46.125 Y156.637 E277.74846
G1 X40.488 Y154.421 E278.39311
G1 X39.786 Y154.083 E278.47604
G1 X34.546 Y151.051 E279.12037
G1 X34.138 Y150.789 E279.17198
G1 X34.062 Y150.735 E279.1819
G1 X33.828 Y150.558 E279.21313
G1 X29.323 Y146.958 E279.8269
G1 X29.041 Y146.722 E279.86604
G1 X28.594 Y146.293 E279.93198
G1 X24.499 Y141.871 E280.57343
G1 X24.201 Y141.52 E280.62244
G1 X23.996 Y141.239 E280.65946
G1 X20.603 Y136.25 E281.30161
G1 X20.384 Y135.899 E281.34564
G1 X20.199 Y135.549 E281.38778
