;FLAVOR:Marlin
;TIME:7577
;Filament used: 18.5706m
;Layer height: 0.32
;MINX:12
;MINY:22.4
;MINZ:0.32
;MAXX:208
;MAXY:197.6
;MAXZ:5.12
;Generated with Cura_SteamEngine 4.13.1
M140 S60
M105
M190 S60
M104 S200
M105
M109 S200
M82 ;absolute extrusion mode
; Ender 3 Custom Start G-code
G92 E0 ; Reset Extruder
G28 ; Home all axes
G1 Z2.0 F3000 ; Move Z Axis up little to prevent scratching of Heat Bed
G1 X0.1 Y20 Z0.3 F5000.0 ; Move to start position
G1 X0.1 Y200.0 Z0.3 F1500.0 E15 ; Draw the first line
G1 X0.4 Y200.0 Z0.3 F5000.0 ; Move to side a little
G1 X0.4 Y20 Z0.3 F1500.0 E30 ; Draw the second line
G92 E0 ; Reset Extruder
G1 Z2.0 F3000 ; Move Z Axis up little to prevent scratching of Heat Bed
G1 X5 Y20 Z0.3 F5000.0 ; Move over to prevent blob squish
G92 E0
G92 E0
G1 F1500 E-6.5
;LAYER_COUNT:16
;LAYER:0
M107
G0 F6000 X38.584 Y63.84 Z0.32
;TYPE:SKIRT
G1 F1500 E0
G1 F1200 X39.607 Y63.346 E0.12091
G1 X45.246 Y61.129 E0.7658
G1 X45.803 Y60.935 E0.82858
G1 X46.362 Y60.784 E0.89021
G1 X52.241 Y59.44 E1.53206
G1 X52.794 Y59.335 E1.59197
G1 X53.4 Y59.265 E1.6569
G1 X59.438 Y58.813 E2.30134
G1 X60.005 Y58.792 E2.36173
G1 X74.021 Y58.792 E3.85348
G1 X74.799 Y58.832 E3.9364
G1 X75.57 Y58.951 E4.01943
G1 X76.324 Y59.149 E4.1024
G1 X77.053 Y59.423 E4.18529
G1 X77.751 Y59.77 E4.26825
G1 X78.41 Y60.187 E4.35125
G1 X79.022 Y60.67 E4.43423
G1 X79.395 Y61.018 E4.48853
G1 X79.629 Y61.252 E4.52375
G1 X80.151 Y61.831 E4.60672
G1 X80.611 Y62.46 E4.68966
G1 X81.005 Y63.133 E4.77266
G1 X81.327 Y63.843 E4.85563
G1 X81.575 Y64.582 E4.9386
G1 X81.746 Y65.342 E5.02151
G1 X81.838 Y66.116 E5.10447
G1 X81.855 Y66.626 E5.15878
G1 X81.855 Y79.053 E6.48141
G1 X152.737 Y79.053 E14.02556
G1 X152.737 Y30.234 E19.22148
G1 X152.777 Y29.456 E19.3044
G1 X152.896 Y28.685 E19.38743
G1 X153.094 Y27.931 E19.4704
G1 X153.368 Y27.202 E19.55329
G1 X153.715 Y26.504 E19.63625
G1 X154.132 Y25.845 E19.71925
G1 X154.615 Y25.233 E19.80223
G1 X154.963 Y24.86 E19.85652
G1 X155.197 Y24.626 E19.89175
G1 X155.776 Y24.104 E19.97472
G1 X156.405 Y23.644 E20.05765
G1 X157.078 Y23.25 E20.14066
G1 X157.788 Y22.928 E20.22363
G1 X158.527 Y22.68 E20.3066
G1 X159.287 Y22.509 E20.38951
G1 X160.061 Y22.417 E20.47247
G1 X160.571 Y22.4 E20.52678
G1 X200.166 Y22.4 E24.74097
G1 X200.944 Y22.44 E24.82388
G1 X201.715 Y22.559 E24.90691
G1 X202.469 Y22.757 E24.98988
G1 X203.198 Y23.031 E25.07277
G1 X203.896 Y23.378 E25.15574
G1 X204.555 Y23.795 E25.23874
G1 X205.167 Y24.278 E25.32172
G1 X205.54 Y24.626 E25.37601
G1 X205.774 Y24.86 E25.41123
G1 X206.296 Y25.439 E25.4942
G1 X206.756 Y26.068 E25.57714
G1 X207.15 Y26.741 E25.66014
G1 X207.472 Y27.451 E25.74312
G1 X207.72 Y28.19 E25.82608
G1 X207.891 Y28.95 E25.90899
G1 X207.983 Y29.724 E25.99195
G1 X208 Y30.234 E26.04626
G1 X208 Y189.766 E43.02564
G1 X207.96 Y190.544 E43.10856
G1 X207.841 Y191.315 E43.19159
G1 X207.643 Y192.069 E43.27456
G1 X207.369 Y192.798 E43.35745
G1 X207.022 Y193.496 E43.44041
G1 X206.605 Y194.155 E43.52341
G1 X206.122 Y194.767 E43.60639
G1 X205.774 Y195.14 E43.66068
G1 X205.54 Y195.374 E43.69591
G1 X204.961 Y195.896 E43.77888
G1 X204.332 Y196.356 E43.86181
G1 X203.659 Y196.75 E43.94482
G1 X202.949 Y197.072 E44.02779
G1 X202.21 Y197.32 E44.11076
G1 X201.45 Y197.491 E44.19367
G1 X200.676 Y197.583 E44.27663
G1 X200.166 Y197.6 E44.33094
G1 X160.571 Y197.6 E48.54513
G1 X159.793 Y197.56 E48.62804
G1 X159.022 Y197.441 E48.71107
G1 X158.268 Y197.243 E48.79404
G1 X157.539 Y196.969 E48.87693
G1 X156.841 Y196.622 E48.9599
G1 X156.182 Y196.205 E49.0429
G1 X155.57 Y195.722 E49.12588
G1 X155.197 Y195.374 E49.18017
G1 X154.963 Y195.14 E49.21539
G1 X154.441 Y194.561 E49.29836
G1 X153.981 Y193.932 E49.3813
G1 X153.587 Y193.259 E49.4643
G1 X153.265 Y192.549 E49.54728
G1 X153.017 Y191.81 E49.63024
G1 X152.846 Y191.05 E49.71315
G1 X152.754 Y190.276 E49.79611
G1 X152.737 Y189.766 E49.85042
G1 X152.737 Y140.947 E55.04635
G1 X81.855 Y140.947 E62.59049
G1 X81.855 Y153.374 E63.91313
G1 X81.815 Y154.152 E63.99604
G1 X81.696 Y154.923 E64.07907
G1 X81.498 Y155.677 E64.16204
G1 X81.224 Y156.406 E64.24493
G1 X80.877 Y157.104 E64.32789
G1 X80.46 Y157.763 E64.4109
G1 X79.977 Y158.375 E64.49388
G1 X79.629 Y158.748 E64.54817
G1 X79.395 Y158.982 E64.58339
G1 X78.816 Y159.504 E64.66636
G1 X78.187 Y159.964 E64.7493
G1 X77.514 Y160.358 E64.8323
G1 X76.804 Y160.68 E64.91528
G1 X76.065 Y160.928 E64.99824
G1 X75.305 Y161.099 E65.08115
G1 X74.531 Y161.191 E65.16411
G1 X74.02 Y161.208 E65.21853
G1 X59.989 Y161.207 E66.71188
G1 X59.423 Y161.186 E66.77216
G1 X53.4 Y160.735 E67.415
G1 X52.992 Y160.693 E67.45865
G1 X52.24 Y160.561 E67.53992
G1 X46.361 Y159.216 E68.1818
G1 X45.774 Y159.056 E68.24655
G1 X45.246 Y158.871 E68.3061
G1 X39.607 Y156.654 E68.95099
G1 X38.584 Y156.16 E69.0719
G1 X33.368 Y153.144 E69.71318
G1 X32.755 Y152.75 E69.79073
G1 X32.404 Y152.486 E69.83748
G1 X27.683 Y148.714 E70.48063
G1 X27.173 Y148.267 E70.55281
G1 X26.831 Y147.921 E70.60459
G1 X22.738 Y143.502 E71.24566
G1 X22.311 Y142.999 E71.31589
G1 X22.012 Y142.589 E71.3699
G1 X18.619 Y137.6 E72.01205
G1 X18.305 Y137.098 E72.07507
G1 X18.035 Y136.587 E72.13659
G1 X15.411 Y131.116 E72.78239
G1 X14.998 Y130.057 E72.90337
G1 X13.225 Y124.275 E73.54704
G1 X12.974 Y123.165 E73.66817
G1 X12.085 Y117.19 E74.3111
G1 X12.019 Y116.585 E74.37587
G1 X12 Y116.03 E74.43498
G1 X12.011 Y109.985 E75.07836
G1 X12 Y103.971 E75.71845
G1 X12.02 Y103.405 E75.77873
G1 X12.085 Y102.81 E75.84243
G1 X12.974 Y96.835 E76.48537
G1 X13.225 Y95.725 E76.60649
G1 X14.998 Y89.943 E77.25016
G1 X15.411 Y88.884 E77.37114
G1 X18.035 Y83.413 E78.01694
G1 X18.32 Y82.876 E78.08165
G1 X18.618 Y82.4 E78.14142
G1 X22.01 Y77.412 E78.78343
G1 X22.328 Y76.979 E78.84061
G1 X22.737 Y76.499 E78.90772
G1 X26.831 Y72.079 E79.54895
G1 X27.193 Y71.714 E79.60366
G1 X27.683 Y71.286 E79.67291
G1 X32.404 Y67.514 E80.31606
G1 X32.779 Y67.233 E80.36594
G1 X33.368 Y66.856 E80.44037
G1 X38.584 Y63.84 E81.08164
G0 F6000 X38.984 Y64.532
G1 F1200 X39.9 Y64.091 E81.18985
G1 X45.539 Y61.874 E81.83474
G1 X46.04 Y61.699 E81.89122
G1 X46.541 Y61.564 E81.94644
G1 X52.42 Y60.22 E82.5883
G1 X52.917 Y60.126 E82.64214
G1 X53.459 Y60.063 E82.70021
G1 X59.497 Y59.611 E83.34465
G1 X60.005 Y59.592 E83.39875
G1 X74.021 Y59.592 E84.89051
G1 X74.757 Y59.632 E84.96896
G1 X75.485 Y59.751 E85.04747
G1 X76.195 Y59.949 E85.12592
G1 X76.88 Y60.222 E85.20441
G1 X77.531 Y60.568 E85.28287
G1 X78.141 Y60.982 E85.36134
G1 X78.829 Y61.584 E85.45864
G1 X79.063 Y61.818 E85.49386
G1 X79.556 Y62.367 E85.57239
G1 X79.986 Y62.965 E85.65078
G1 X80.348 Y63.607 E85.72923
G1 X80.639 Y64.285 E85.80775
G1 X80.855 Y64.99 E85.88623
G1 X80.994 Y65.714 E85.96469
G1 X81.055 Y66.626 E86.06198
G1 X81.055 Y79.853 E87.46976
G1 X153.537 Y79.853 E95.1842
G1 X153.537 Y30.234 E100.46527
G1 X153.577 Y29.498 E100.54372
G1 X153.696 Y28.77 E100.62223
G1 X153.894 Y28.06 E100.70068
G1 X154.167 Y27.375 E100.77916
G1 X154.513 Y26.724 E100.85763
G1 X154.927 Y26.114 E100.93609
G1 X155.529 Y25.426 E101.03339
G1 X155.763 Y25.192 E101.06861
G1 X156.312 Y24.699 E101.14714
G1 X156.91 Y24.269 E101.22554
G1 X157.552 Y23.907 E101.30398
G1 X158.23 Y23.616 E101.38251
G1 X158.935 Y23.4 E101.46099
G1 X159.659 Y23.261 E101.53945
G1 X160.571 Y23.2 E101.63673
G1 X200.166 Y23.2 E105.85093
G1 X200.902 Y23.24 E105.92938
G1 X201.63 Y23.359 E106.00789
G1 X202.34 Y23.557 E106.08634
G1 X203.025 Y23.83 E106.16482
G1 X203.676 Y24.176 E106.24329
G1 X204.286 Y24.59 E106.32175
G1 X204.974 Y25.192 E106.41905
G1 X205.208 Y25.426 E106.45427
G1 X205.701 Y25.975 E106.5328
G1 X206.131 Y26.573 E106.6112
G1 X206.493 Y27.215 E106.68964
G1 X206.784 Y27.893 E106.76817
G1 X207 Y28.598 E106.84665
G1 X207.139 Y29.322 E106.92511
G1 X207.2 Y30.234 E107.02239
G1 X207.2 Y189.766 E124.00177
G1 X207.16 Y190.502 E124.08022
G1 X207.041 Y191.23 E124.15873
G1 X206.843 Y191.94 E124.23718
G1 X206.57 Y192.625 E124.31567
G1 X206.224 Y193.276 E124.39413
G1 X205.81 Y193.886 E124.4726
G1 X205.208 Y194.574 E124.5699
G1 X204.974 Y194.808 E124.60512
G1 X204.425 Y195.301 E124.68365
G1 X203.827 Y195.731 E124.76204
G1 X203.185 Y196.093 E124.84049
G1 X202.507 Y196.384 E124.91901
G1 X201.802 Y196.6 E124.99749
G1 X201.078 Y196.739 E125.07596
G1 X200.166 Y196.8 E125.17324
G1 X160.571 Y196.8 E129.38743
G1 X159.835 Y196.76 E129.46588
G1 X159.107 Y196.641 E129.54439
G1 X158.397 Y196.443 E129.62284
G1 X157.712 Y196.17 E129.70133
G1 X157.061 Y195.824 E129.77979
G1 X156.451 Y195.41 E129.85826
G1 X155.763 Y194.808 E129.95556
G1 X155.529 Y194.574 E129.99078
G1 X155.036 Y194.025 E130.06931
G1 X154.606 Y193.427 E130.1477
G1 X154.244 Y192.785 E130.22615
G1 X153.953 Y192.107 E130.30467
G1 X153.737 Y191.402 E130.38315
G1 X153.598 Y190.678 E130.46161
G1 X153.537 Y189.766 E130.5589
G1 X153.537 Y140.147 E135.83997
G1 X81.055 Y140.147 E143.5544
G1 X81.055 Y153.374 E144.96219
G1 X81.015 Y154.11 E145.04064
G1 X80.896 Y154.838 E145.11915
G1 X80.698 Y155.548 E145.1976
G1 X80.425 Y156.233 E145.27608
G1 X80.079 Y156.884 E145.35455
G1 X79.665 Y157.494 E145.43301
G1 X79.063 Y158.182 E145.53031
G1 X78.829 Y158.416 E145.56553
G1 X78.28 Y158.909 E145.64406
G1 X77.682 Y159.339 E145.72246
G1 X77.04 Y159.701 E145.8009
G1 X76.362 Y159.992 E145.87943
G1 X75.657 Y160.208 E145.95791
G1 X74.933 Y160.347 E146.03637
G1 X74.021 Y160.408 E146.13365
G1 X59.99 Y160.407 E147.62701
G1 X59.482 Y160.388 E147.68111
G1 X53.459 Y159.937 E148.32395
G1 X53.092 Y159.899 E148.36322
G1 X52.418 Y159.781 E148.43605
G1 X46.539 Y158.436 E149.07793
G1 X46.011 Y158.292 E149.13618
G1 X45.539 Y158.126 E149.18943
G1 X39.9 Y155.909 E149.83432
G1 X38.984 Y155.468 E149.94252
G1 X33.768 Y152.452 E150.5838
G1 X33.217 Y152.097 E150.65356
G1 X32.903 Y151.861 E150.69537
G1 X28.182 Y148.089 E151.33852
G1 X27.724 Y147.687 E151.40338
G1 X27.418 Y147.378 E151.44967
G1 X23.325 Y142.959 E152.09074
G1 X22.941 Y142.506 E152.15395
G1 X22.673 Y142.139 E152.20231
G1 X19.28 Y137.15 E152.84447
G1 X18.998 Y136.698 E152.90117
G1 X18.757 Y136.241 E152.95616
G1 X16.133 Y130.77 E153.60196
G1 X15.763 Y129.823 E153.71017
G1 X13.99 Y124.041 E154.35385
G1 X13.765 Y123.048 E154.46221
G1 X12.876 Y117.073 E155.10515
G1 X12.817 Y116.528 E155.16349
G1 X12.8 Y116.032 E155.21631
G1 X12.811 Y109.987 E155.8597
G1 X12.8 Y103.969 E156.50021
G1 X12.818 Y103.46 E156.55442
G1 X12.876 Y102.927 E156.61148
G1 X13.765 Y96.952 E157.25442
G1 X13.99 Y95.959 E157.36278
G1 X15.763 Y90.177 E158.00646
G1 X16.133 Y89.23 E158.11467
G1 X18.757 Y83.759 E158.76047
G1 X19.013 Y83.276 E158.81865
G1 X19.28 Y82.85 E158.87216
G1 X22.672 Y77.862 E159.51417
G1 X22.958 Y77.472 E159.56564
G1 X23.324 Y77.042 E159.62574
G1 X27.418 Y72.622 E160.26697
G1 X27.744 Y72.294 E160.31619
G1 X28.182 Y71.911 E160.37811
G1 X32.903 Y68.139 E161.02127
G1 X33.241 Y67.886 E161.0662
G1 X33.768 Y67.548 E161.13284
G1 X38.984 Y64.532 E161.77411
G0 F6000 X39.385 Y65.225
G1 F1200 X40.193 Y64.835 E161.8696
G1 X45.832 Y62.618 E162.5145
G1 X46.278 Y62.463 E162.56475
G1 X46.719 Y62.344 E162.61336
G1 X52.598 Y61 E163.25522
G1 X53.041 Y60.916 E163.30321
G1 X53.519 Y60.861 E163.35442
G1 X59.557 Y60.409 E163.99886
G1 X60.005 Y60.392 E164.04658
G1 X74.021 Y60.392 E165.53833
G1 X74.712 Y60.432 E165.612
G1 X75.395 Y60.551 E165.68579
G1 X76.058 Y60.749 E165.75943
G1 X76.695 Y61.021 E165.83315
G1 X77.296 Y61.365 E165.90686
G1 X77.854 Y61.776 E165.98062
G1 X78.264 Y62.149 E166.03961
G1 X78.498 Y62.383 E166.07483
G1 X78.958 Y62.9 E166.14849
G1 X79.356 Y63.467 E166.22222
G1 X79.686 Y64.076 E166.29594
G1 X79.944 Y64.719 E166.36968
G1 X80.126 Y65.387 E166.44337
G1 X80.229 Y66.072 E166.51709
G1 X80.255 Y66.626 E166.57612
G1 X80.255 Y80.653 E168.06905
G1 X154.337 Y80.653 E175.95378
G1 X154.337 Y30.234 E181.31999
G1 X154.377 Y29.543 E181.39366
G1 X154.496 Y28.86 E181.46745
G1 X154.694 Y28.197 E181.54109
G1 X154.966 Y27.56 E181.61481
G1 X155.31 Y26.959 E181.68852
G1 X155.721 Y26.401 E181.76228
G1 X156.094 Y25.991 E181.82127
G1 X156.328 Y25.757 E181.85649
G1 X156.845 Y25.297 E181.93014
G1 X157.412 Y24.899 E182.00387
G1 X158.021 Y24.569 E182.0776
G1 X158.664 Y24.311 E182.15134
G1 X159.332 Y24.129 E182.22502
G1 X160.017 Y24.026 E182.29875
G1 X160.571 Y24 E182.35778
G1 X200.166 Y24 E186.57197
G1 X200.857 Y24.04 E186.64564
G1 X201.54 Y24.159 E186.71943
G1 X202.203 Y24.357 E186.79307
G1 X202.84 Y24.629 E186.86679
G1 X203.441 Y24.973 E186.94049
G1 X203.999 Y25.384 E187.01425
G1 X204.409 Y25.757 E187.07325
G1 X204.643 Y25.991 E187.10847
G1 X205.103 Y26.508 E187.18212
G1 X205.501 Y27.075 E187.25585
G1 X205.831 Y27.684 E187.32957
G1 X206.089 Y28.327 E187.40331
G1 X206.271 Y28.995 E187.477
G1 X206.374 Y29.68 E187.55073
G1 X206.4 Y30.234 E187.60976
G1 X206.4 Y189.766 E204.58913
G1 X206.36 Y190.457 E204.6628
G1 X206.241 Y191.14 E204.73659
G1 X206.043 Y191.803 E204.81024
G1 X205.771 Y192.44 E204.88396
G1 X205.427 Y193.041 E204.95766
G1 X205.016 Y193.599 E205.03142
G1 X204.643 Y194.009 E205.09041
G1 X204.409 Y194.243 E205.12563
G1 X203.892 Y194.703 E205.19929
G1 X203.325 Y195.101 E205.27302
G1 X202.716 Y195.431 E205.34674
G1 X202.073 Y195.689 E205.42048
G1 X201.405 Y195.871 E205.49417
G1 X200.72 Y195.974 E205.56789
G1 X200.166 Y196 E205.62692
G1 X160.571 Y196 E209.84111
G1 X159.88 Y195.96 E209.91478
G1 X159.197 Y195.841 E209.98857
G1 X158.534 Y195.643 E210.06221
G1 X157.897 Y195.371 E210.13593
G1 X157.296 Y195.027 E210.20964
G1 X156.738 Y194.616 E210.2834
G1 X156.328 Y194.243 E210.34239
G1 X156.094 Y194.009 E210.37761
G1 X155.634 Y193.492 E210.45126
G1 X155.236 Y192.925 E210.525
G1 X154.906 Y192.316 E210.59872
G1 X154.648 Y191.673 E210.67246
G1 X154.466 Y191.005 E210.74614
G1 X154.363 Y190.32 E210.81987
G1 X154.337 Y189.766 E210.8789
G1 X154.337 Y139.347 E216.24512
G1 X80.255 Y139.347 E224.12984
G1 X80.255 Y153.374 E225.62277
G1 X80.215 Y154.065 E225.69644
G1 X80.096 Y154.748 E225.77023
G1 X79.898 Y155.411 E225.84387
G1 X79.626 Y156.048 E225.91759
G1 X79.282 Y156.649 E225.99129
G1 X78.871 Y157.207 E226.06505
G1 X78.498 Y157.617 E226.12405
G1 X78.264 Y157.851 E226.15927
G1 X77.747 Y158.311 E226.23292
G1 X77.18 Y158.709 E226.30665
G1 X76.571 Y159.039 E226.38037
G1 X75.928 Y159.297 E226.45411
G1 X75.26 Y159.479 E226.5278
G1 X74.575 Y159.582 E226.60153
G1 X74.021 Y159.608 E226.66056
G1 X59.99 Y159.607 E228.15391
G1 X59.542 Y159.59 E228.20163
G1 X53.519 Y159.139 E228.84446
G1 X53.191 Y159.106 E228.87955
G1 X52.597 Y159.001 E228.94375
G1 X46.718 Y157.656 E229.58563
G1 X46.249 Y157.528 E229.63738
G1 X45.832 Y157.382 E229.6844
G1 X40.193 Y155.165 E230.32929
G1 X39.385 Y154.775 E230.42478
G1 X34.169 Y151.759 E231.06606
G1 X33.68 Y151.444 E231.12797
G1 X33.403 Y151.236 E231.16483
G1 X28.682 Y147.464 E231.80799
G1 X28.275 Y147.107 E231.86561
G1 X28.005 Y146.834 E231.90648
G1 X23.912 Y142.415 E232.54755
G1 X23.571 Y142.013 E232.60366
G1 X23.335 Y141.689 E232.64632
G1 X19.942 Y136.7 E233.28847
G1 X19.691 Y136.298 E233.33891
G1 X19.478 Y135.895 E233.38743
G1 X16.854 Y130.424 E234.03323
G1 X16.528 Y129.588 E234.12873
G1 X14.755 Y123.806 E234.77241
G1 X14.556 Y122.93 E234.86802
G1 X13.667 Y116.955 E235.51095
G1 X13.615 Y116.471 E235.56276
G1 X13.6 Y116.033 E235.60941
G1 X13.611 Y109.988 E236.25279
G1 X13.6 Y103.968 E236.89352
G1 X13.616 Y103.515 E236.94176
G1 X13.667 Y103.045 E236.99208
G1 X14.556 Y97.07 E237.63501
G1 X14.755 Y96.194 E237.73062
G1 X16.528 Y90.412 E238.3743
G1 X16.854 Y89.576 E238.4698
G1 X19.478 Y84.105 E239.1156
G1 X19.706 Y83.676 E239.16731
G1 X19.942 Y83.3 E239.21456
G1 X23.334 Y78.312 E239.85657
G1 X23.588 Y77.965 E239.90234
G1 X23.911 Y77.586 E239.95534
G1 X28.005 Y73.166 E240.59656
G1 X28.295 Y72.874 E240.64036
G1 X28.682 Y72.536 E240.69505
G1 X33.403 Y68.764 E241.3382
G1 X33.704 Y68.539 E241.3782
G1 X34.169 Y68.241 E241.43698
G1 X39.385 Y65.225 E242.07826
G0 F6000 X39.785 Y65.917
G1 F1200 X40.485 Y65.58 E242.16094
G1 X46.124 Y63.363 E242.80584
G1 X46.515 Y63.227 E242.8499
G1 X46.897 Y63.124 E242.89201
G1 X52.776 Y61.78 E243.53386
G1 X53.164 Y61.706 E243.5759
G1 X53.579 Y61.659 E243.62036
G1 X59.617 Y61.207 E244.26479
G1 X60.005 Y61.192 E244.30612
G1 X74.021 Y61.192 E245.79788
G1 X74.664 Y61.232 E245.86645
G1 X75.298 Y61.351 E245.9351
